!!!COM: Joplin, Scott
!!!CDT: 1868/11/24/-1917/04/01/
!!!OTL: Binks's Waltz
!!!ODT: 1905///
**kern	**kern	**dynam
*staff2	*staff1	*staff1/2
*>[I,A,A1,A,A2,B,B1,B,B2,C,D,D1,D,D2,E]	*>[I,A,A1,A,A2,B,B1,B,B2,C,D,D1,D,D2,E]	*>[I,A,A1,A,A2,B,B1,B,B2,C,D,D1,D,D2,E]
*>norep[I,A,A2,B,B2,C,D,D2,E]	*>norep[I,A,A2,B,B2,C,D,D2,E]	*>norep[I,A,A2,B,B2,C,D,D2,E]
*>I	*>I	*>I
*Ipiano	*Ipiano	*Ipiano
*clefF4	*clefG2	*clefG2
*k[b-e-]	*k[b-e-]	*k[b-e-]
*M3/4	*M3/4	*M3/4
*MM132	*MM132	*MM132
=1-	=1-	=1-
(8BB-\L	(8B-/L	mp
8D\	8d/	.
8C#\	8c#/	.
8D\	8d/	.
8F\	8f/	.
8G\J)	8g/J)	.
=2	=2	=2
(8BB-\L	(8B-/L	<
8D\	8d/	.
8C#\	8c#/	.
8D\	8d/	.
8F\	8f/	.
8G\J)	8g/J)	.
=3	=3	=3
*	*^	*
2GG/ 2G/	8b-/L	2d\ 2g\	<
.	8b-/	.	.
.	8b-/	.	.
.	8b-/	.	.
4GG-/ 4G-/	8b-/	4c\ 4e-\	.
.	8b-/J	.	.
=4	=4	=4	=4
2FF/ 2F/	2a/	2c\ 2e-\	>
4r	4f/	4r	.
*	*v	*v	*
=5!|:	=5!|:	=5!|:
*>A	*>A	*>A
4BB-/	8b-'\L	mp
.	8dd'\	.
4F\ 4B-\ 4d\	8dd'\	.
.	8ff'\	.
4F\ 4B-\ 4d\	8ff'\	.
.	8f'\J	.
=6	=6	=6
*^	*	*
8BB-/L	2.BB-\	(2g/	.
(8G/	.	.	.
8B-/	.	.	.
8c#/J	.	.	.
4d/)	.	4f/)	.
*v	*v	*	*
=7	=7	=7
4BB-/	8b-'\L	.
.	8dd'\	.
4F\ 4B-\ 4d\	8dd'\	.
.	8ff'\	.
4F\ 4B-\ 4d\	8ff'\	.
.	8f'\J	.
=8	=8	=8
*^	*	*
8BB-/L	2.BB-\	(2g/	.
(8G/	.	.	.
8B-/	.	.	.
8c#/J	.	.	.
4d/)	.	4f/)	.
*v	*v	*	*
=9	=9	=9
4FF/	4gg\ 4eee-\ 4ggg\	<
4F\ 4A\ 4e-\	4.gg\ 4.eee-\ 4.ggg\	.
4F\ 4A\ 4e-\	.	.
.	8gg-\ 8eee-\ 8ggg-\	.
=10	=10	=10
4FF/	4ff\ 4eee-\ 4fff\	<
4F\ 4A\ 4e-\	4cc\ 4ccc\	.
4F\ 4A\ 4e-\	4cc#\ 4ccc#\	.
=11	=11	=11
4BBB-/ 4BB-/	4dd\ 4ff\ 4ddd\	.
4GG/ 4G/	4b-\ 4ee-\ 4bb-\	.
4EE-/ 4E-/	4g\ 4b-\ 4gg\	.
=12	=12	=12
4DD/ 4D/	2f/ 2b-/ 2ff/	.
4F\ 4B-\ 4d\	.	.
4F\ 4B-\ 4d\	4f/	.
=13	=13	=13
4BB-/	8b-'\L	mp
.	8dd'\	.
4F\ 4B-\ 4d\	8dd'\	.
.	8ff'\	.
4F\ 4B-\ 4d\	8ff'\	.
.	8f'\J	.
=14	=14	=14
*^	*	*
8BB-/L	2.BB-\	(2g/	.
(8G/	.	.	.
8B-/	.	.	.
8c#/J	.	.	.
4d/)	.	4f/)	.
*v	*v	*	*
=15	=15	=15
4BB-/	8b-'\L	.
.	8dd'\	.
4F\ 4B-\ 4d\	8dd'\	.
.	8ff'\	.
4F\ 4B-\ 4d\	8ff'\	.
.	8dd'\J	.
=16	=16	=16
(8BBn\L	2g#\ (2dd\	.
8F\	.	.
8G#\	.	.
8Bn\J	.	.
4c\)	&(4a\&) 4cc\)	.
=17	=17	=17
4CC/ 4C/	4dd\ 4bb-\ 4ddd\	<
4B-\ 4c\ 4en\	4.dd\ 4.bb-\ 4.ddd\	.
4B-\ 4c\ 4e\	.	.
.	8dd-\ 8bb-\ 8ddd-\	.
=18	=18	=18
4CC/ 4C/	4cc\ 4bb-\ 4ccc\	mf
4B-\ 4c\ 4en\	4.gg\ 4.bb-\ 4.ggg\	.
4B-\ 4c\ 4e\	.	.
.	8aa\ 8ccc\ 8aaa\	.
=19	=19	=19
4FF/ 4F/	[2.ff\ [2.aa\ [2.fff\	.
4C/	.	.
4AA/	.	.
=20	=20	=20
*	*^	*
4FF/	4ff\] 4aa\] 4fff\]	4r	.
4r	2e-\	(4g/	.
4r	.	4a/)	.
=21	=21	=21	=21
4BB-/	8b-'/L	4d\	mp
.	8dd'/	.	.
4F\ 4B-\ 4d\	8dd'/	4r	.
.	8ff'/	.	.
4F\ 4B-\ 4d\	8ff'/	4r	.
.	8f'/J	.	.
*	*v	*v	*
=22	=22	=22
*^	*	*
8BB-/L	2.BB-\	(2g/	.
(8G/	.	.	.
8B-/	.	.	.
8c#/J	.	.	.
4d/)	.	4f/)	.
*v	*v	*	*
=23	=23	=23
4BB-/	8b-'\L	.
.	8dd'\	.
4F\ 4B-\ 4d\	8dd'\	.
.	8ff'\	.
4F\ 4B-\ 4d\	8ff'\	.
.	8f'\J	.
=24	=24	=24
*^	*	*
8BB-/L	(2.BB-\	(2g/	.
8G/	.	.	.
8B-/	.	.	.
8c#/J	.	.	.
4d/)	.	4f/)	.
*v	*v	*	*
=25	=25	=25
4FF/	4gg\ 4eee-\ 4ggg\	<
4F\ 4A\ 4e-\	4.gg\ 4.eee-\ 4.ggg\	.
4F\ 4A\ 4e-\	.	.
.	8gg-\ 8eee-\ 8ggg-\	.
=26	=26	=26
4FF/	4ff\ 4eee-\ 4fff\	<
4F\ 4A\ 4e-\	4cc\ 4ccc\	.
4F\ 4A\ 4e-\	4cc#\ 4ccc#\	.
=27	=27	=27
4BBB-/ 4BB-/	4dd\ 4ddd\	.
4F\ 4B-\ 4d\	(8ff\L	>
.	8cc#\	.
4F\ 4B-\ 4d\	8dd\	.
.	8a\J)	.
=28	=28	=28
4DD/ 4D/	(2b-/	mp
4F\ 4B-\ 4d\	.	.
4F\ 4B-\ 4d\	4f/)	.
=29	=29	=29
4EE-/ 4E-/	8g-/L	.
.	8b-/	.
4G-\ 4B-\ 4e-\	8b-/	.
.	8cc/	.
4G-\ 4B-\ 4e-\	8cc/	.
.	8g-/J	.
=30	=30	=30
4DD/ 4D/	2f/	.
4F\ 4B-\ 4d\	.	.
4F\ 4B-\ 4d\	4f/	.
=31	=31	=31
4EE-/ 4E-/	8g-/L	.
.	8b-/	.
4G-\ 4B-\ 4e-\	8b-/	.
.	8cc/	.
4G-\ 4B-\ 4e-\	8cc/	.
.	8g-/J	.
=32	=32	=32
4DD/ 4D/	4f/	>
4DD^/ 4D^/	4a-^\ 4b-^\ 4ff^\	.
4EE-^/ 4E-^/	4g^\ 4b-^\ 4ee-^\	.
=33	=33	=33
*	*^	*
4FF/ 4F/	4dd/	2.f\ 2.b-\	f
4F\ 4B-\ 4d\	4.b-/	.	.
4F\ 4B-\ 4d\	.	.	.
.	8dd/	.	.
=34	=34	=34	=34
4FF/ 4F/	4a/ 4cc/	4e-\	.
4F\ 4A\ 4c\	4.cc/	2e-\ 2a\	.
4F\ 4A\ 4c\	.	.	.
.	8dd/	.	.
*	*v	*v	*
=35	=35	=35
*>A1	*>A1	*>A1
4BB-\ 4B-\	[2.d/ [2.b-/	.
4F\	.	.
4D\	.	.
=36	=36	=36
4BB-/	4d/] 4b-/]	.
(4E-\	(4g/	.
4C/)	4a/)	.
=37:|!	=37:|!	=37:|!
*>A2	*>A2	*>A2
4BB-\ 4B-\	[2.d/ [2.b-/	.
4F\	.	.
4D\	.	.
=38	=38	=38
4BB-/	4d/] 4b-/]	.
4r	4dd\ 4ddd\	.
4r	4dd\ 4ddd\	.
=39!|:	=39!|:	=39!|:
*>B	*>B	*>B
4GGG/ 4GG/	4bb-\ 4bbb-\	.
4G\ 4B-\ 4d\	2gg\ 2ggg\	f
4G\ 4B-\ 4d\	.	.
=40	=40	=40
4CC/ 4C/	4gg\ 4ggg\	.
4G\ 4A\ 4c\ 4e-\	2ee-\ 2eee-\	.
4G\ 4A\ 4c\ 4e-\	.	.
=41	=41	=41
4DD/ 4D/	8dd\ 8ddd\L	mf
.	8ee-\ 8eee-\	.
4F#\ 4A\ 4c\ 4d\	8dd\ 8ddd\	.
.	8ee-\ 8eee-\J	.
4F#\ 4A\ 4c\ 4d\	4dd\ 4ddd\	.
=42	=42	=42
4GGG/ 4GG/	8dd\ 8ddd\L	.
.	8ee-\ 8eee-\	.
4G\ 4B-\ 4d\	8dd\ 8ddd\	.
.	8ee-\ 8eee-\J	.
4G\ 4B-\ 4d\	4dd\ 4ddd\	.
=43	=43	=43
4GGG/ 4GG/	4bb-\ 4bbb-\	.
4G\ 4B-\ 4d\	2gg\ 2ggg\	.
4BBB-/ 4BB-/	.	.
=44	=44	=44
4AAA/ 4AA/	4aa\ 4aaa\	.
4F#\ 4A\ 4d\	2ff#\ 2fff#\	.
4F#\ 4A\ 4d\	.	.
=45	=45	=45
4AAA/ 4AA/	8aa\ 8aaa\L	.
.	8bbn\ 8bbbn\	.
4G\ 4A\ 4c#\	8aa\ 8aaa\	.
.	8gg\ 8ggg\	.
4G\ 4A\ 4c#\	8ff#\ 8fff#\	.
.	8een\ 8eeen\J	.
=46	=46	=46
8DD/ 8D/L	2.dd\ 2.ff#\ 2.aa\ 2.ddd\	.
8EE-/ 8E-/	.	.
8DD/ 8D/	.	.
8CC/ 8C/	.	.
8BBB-/ 8BB-/	.	.
8AAA/ 8AA/J	.	.
=47	=47	=47
4GGG/ 4GG/	4bb-\ 4bbb-\	.
4G\ 4B-\ 4d\	2gg\ 2ggg\	.
4G\ 4B-\ 4d\	.	.
=48	=48	=48
4CC/ 4C/	4gg\ 4ggg\	.
4G\ 4A\ 4c\ 4e-\	2ee-\ 2eee-\	.
4G\ 4A\ 4c\ 4e-\	.	.
=49	=49	=49
4DD/ 4D/	8dd\ 8ddd\L	mp
.	8ee-\ 8eee-\	.
4F#\ 4A\ 4c\ 4d\	8dd\ 8ddd\	.
.	8ee-\ 8eee-\J	.
4F#\ 4A\ 4c\ 4d\	4dd\ 4ddd\	.
=50	=50	=50
4GGG/ 4GG/	8dd\ 8ddd\L	.
.	8ee-\ 8eee-\	.
4G\ 4B-\ 4d\	8dd\ 8ddd\	.
.	8ee-\ 8eee-\J	.
4G\ 4B-\ 4d\	4dd\ 4ddd\	.
=51	=51	=51
4CC/ 4C/	4ee-\ 4eee-\	.
4G\ 4c\ 4e-\	2gg\ 2ggg\	.
4G\ 4c\ 4e-\	.	.
=52	=52	=52
4DD/ 4D/	4dd\ 4ddd\	.
4G\ 4B-\ 4d\	2gg\ 2ggg\	.
4G\ 4B-\ 4d\	.	.
=53	=53	=53
4DD/ 4D/	8dd\ 8ddd\L	.
.	8ee-\ 8eee-\	.
4F#\ 4A\ 4c\ 4d\	8dd\ 8ddd\	.
.	8cc\ 8ccc\	.
4F#\ 4A\ 4c\ 4d\	8b-\ 8bb-\	.
.	8a\ 8aa\J	.
=54	=54	=54
*>B1	*>B1	*>B1
2.G\ 2.B-\ 2.d\	8g\ 8gg\L	mp
.	8a\ 8aa\	.
.	8b-\ 8bb-\	.
.	8cc\ 8ccc\	.
.	8dd\ 8ddd\	.
.	8gg\ 8ggg\J	.
=55:|!	=55:|!	=55:|!
*>B2	*>B2	*>B2
*^	*	*
4B-/ (4d/	2G\	2g\ 2gg\	>
2c/ 2e-/)	.	.	.
.	4Fn\	4a/	.
*v	*v	*	*
=56	=56	=56
*>C	*>C	*>C
4BB-/	8b-'\L	mp
.	8dd'\	.
4F\ 4B-\ 4d\	8dd'\	.
.	8ff'\	.
4F\ 4B-\ 4d\	8ff'\	.
.	8f'\J	.
=57	=57	=57
*^	*	*
8BB-/L	2.BB-\	(2g/	.
(8G/	.	.	.
8B-/	.	.	.
8c#/J	.	.	.
4d/)	.	4f/)	.
*v	*v	*	*
=58	=58	=58
4BB-/	8b-'\L	.
.	8dd'\	.
4F\ 4B-\ 4d\	8dd'\	.
.	8ff'\	.
4F\ 4B-\ 4d\	8ff'\	.
.	8f'\J	.
=59	=59	=59
*^	*	*
8BB-/L	2.BB-\	(2g/	.
(8G/	.	.	.
8B-/	.	.	.
8c#/J	.	.	.
4d/)	.	4f/)	.
*v	*v	*	*
=60	=60	=60
4FF/	4gg\ 4eee-\ 4ggg\	<
4F\ 4A\ 4e-\	4.gg\ 4.eee-\ 4.ggg\	.
4F\ 4A\ 4e-\	.	.
.	8gg-\ 8eee-\ 8ggg-\	.
=61	=61	=61
4FF/	4ff\ 4eee-\ 4fff\	<
4F\ 4A\ 4e-\	4cc\ 4ccc\	.
4F\ 4A\ 4e-\	4cc#\ 4ccc#\	.
=62	=62	=62
4BBB-/ 4BB-/	4dd\ 4ff\ 4ddd\	<
4GG/ 4G/	4b-\ 4ee-\ 4bb-\	.
4EE-/ 4E-/	4g\ 4b-\ 4gg\	.
=63	=63	=63
4DD/ 4D/	2f\ 2b-\ 2ff\	mp
4F\ 4B-\ 4d\	.	.
4F\ 4B-\ 4d\	4f/	.
=64	=64	=64
4BB-/	8b-'\L	.
.	8dd'\	.
4F\ 4B-\ 4d\	8dd'\	.
.	8ff'\	.
4F\ 4B-\ 4d\	8ff'\	.
.	8f'\J	.
=65	=65	=65
*^	*	*
8BB-/L	2.BB-\	(2g/	.
(8G/	.	.	.
8B-/	.	.	.
8c#/J	.	.	.
4d/)	.	4f/)	.
*v	*v	*	*
=66	=66	=66
4BB-/	8b-'\L	.
.	8dd'\	.
4F\ 4B-\ 4d\	8dd'\	.
.	8ff'\	.
4F\ 4B-\ 4d\	8ff'\	.
.	8dd'\J	.
=67	=67	=67
(8BBn\L	2g#\ (2dd\	.
8F\	.	.
8G#\	.	.
8Bn\J	.	.
4c\)	&(4a\&) 4cc\)	.
=68	=68	=68
4CC/ 4C/	4dd\ 4bb-\ 4ddd\	<
4B-\ 4c\ 4en\	4.dd\ 4.bb-\ 4.ddd\	.
4B-\ 4c\ 4e\	.	.
.	8dd-\ 8bb-\ 8ddd-\	.
=69	=69	=69
4CC/ 4C/	4cc\ 4bb-\ 4ccc\	mf
4B-\ 4c\ 4en\	4.gg\ 4.bb-\ 4.ggg\	.
4B-\ 4c\ 4e\	.	.
.	8aa\ 8ccc\ 8aaa\	.
=70	=70	=70
4FF/ 4F/	[2.ff\ [2.aa\ [2.fff\	.
4C/	.	.
4AA/	.	.
=71	=71	=71
*	*^	*
4FF/	4ff\] 4aa\] 4fff\]	4r	>
4r	2e-\	4g/	.
4r	.	4a/	.
=72	=72	=72	=72
4BB-/	8b-'/L	4d\	.
.	8dd'/	.	.
4F\ 4B-\ 4d\	8dd'/	4r	.
.	8ff'/	.	.
4F\ 4B-\ 4d\	8ff'/	4r	.
.	8f'/J	.	.
*	*v	*v	*
=73	=73	=73
*^	*	*
8BB-/L	2.BB-\	(2g/	.
(8G/	.	.	.
8B-/	.	.	.
8c#/J	.	.	.
4d/)	.	4f/)	.
*v	*v	*	*
=74	=74	=74
4BB-/	8b-'\L	.
.	8dd'\	.
4F\ 4B-\ 4d\	8dd'\	.
.	8ff'\	.
4F\ 4B-\ 4d\	8ff'\	.
.	8f'\J	.
=75	=75	=75
*^	*	*
8BB-/L	2.BB-\	(2g/	.
(8G/	.	.	.
8B-/	.	.	.
8c#/J	.	.	.
4d/)	.	4f/)	.
*v	*v	*	*
=76	=76	=76
4FF/	4gg\ 4eee-\ 4ggg\	<
4F\ 4A\ 4e-\	4.gg\ 4.eee-\ 4.ggg\	.
4F\ 4A\ 4e-\	.	.
.	8gg-\ 8eee-\ 8ggg-\	.
=77	=77	=77
4FF/	4ff\ 4eee-\ 4fff\	<
4F\ 4A\ 4e-\	4cc\ 4ccc\	.
4F\ 4A\ 4e-\	4cc#\ 4ccc#\	.
=78	=78	=78
4BBB-/ 4BB-/	4dd\ 4ddd\	.
4F\ 4B-\ 4d\	(8ff\L	>
.	8cc#\	.
4F\ 4B-\ 4d\	8dd\	.
.	8a\J)	.
=79	=79	=79
4DD/ 4D/	(2b-/	mp
4F\ 4B-\ 4d\	.	.
4F\ 4B-\ 4d\	4f/)	.
=80	=80	=80
4EE-/ 4E-/	8g-/L	.
.	8b-/	.
4G-\ 4B-\ 4e-\	8b-/	.
.	8cc/	.
4G-\ 4B-\ 4e-\	8cc/	.
.	8g-/J	.
=81	=81	=81
4DD/ 4D/	2f/	.
4F\ 4B-\ 4d\	.	.
4F\ 4B-\ 4d\	4f/	.
=82	=82	=82
4EE-/ 4E-/	8g-/L	.
.	8b-/	.
4G-\ 4B-\ 4e-\	8b-/	.
.	8cc/	.
4G-\ 4B-\ 4e-\	8cc/	.
.	8g-/J	.
=83	=83	=83
4DD/ 4D/	4f/	<
4DD^/ 4D^/	4a-^\ 4b-^\ 4ff^\	.
4EE-^/ 4E-^/	4g^\ 4b-^\ 4ee-^\	.
=84	=84	=84
*	*^	*
4FF/ 4F/	4dd/	2.f\ 2.b-\	.
4F\ 4B-\ 4d\	4.b-/	.	.
4F\ 4B-\ 4d\	.	.	.
.	8dd/	.	.
=85	=85	=85	=85
4FF/ 4F/	4cc/	4e-\ 4a\	.
4F\ 4A\ 4c\	4.cc/	2e-\ 2a\	.
4F\ 4A\ 4c\	.	.	.
.	8dd/	.	.
*	*v	*v	*
=86	=86	=86
4BB-\ 4B-\	[2.d/ [2.b-/	.
4F\	.	.
4D\	.	.
=87	=87	=87
4BB-/	4d/] 4b-/]	.
4r	4B-/ 4b-/	.
4r	4e-/ 4ee-/	.
=88!|:	=88!|:	=88!|:
*>D	*>D	*>D
*k[b-e-a-]	*k[b-e-a-]	*k[b-e-a-]
4EE-/ 4E-/	2g\ 2ee-\ (2gg\	mf
4G\ 4B-\ 4e-\	.	.
4G\ 4B-\ 4e-\	4b-\ 4gg\ 4bb-\)	.
=89	=89	=89
4DD/ 4D/	8f\ (8ff\L	.
.	8g\ 8gg\	.
4A-\ 4B-\ 4d\	8a-\ 8aa-\	.
.	8b-\ 8bb-\	.
4A-\ 4B-\ 4d\	8cc\ 8ccc\	.
.	8dd\ 8ddd\J	.
=90	=90	=90
4CC/ 4C/	2.ee-\ 2.gg\ 2.eee-\)	f
4G\ 4c\ 4e-\	.	.
4G\ 4c\ 4e-\	.	.
=91	=91	=91
4FF/ 4F/	2.a-\ 2.ff\ 2.aa-\	.
4A-\ 4c\ 4f\	.	.
4A-\ 4c\ 4f\	.	.
=92	=92	=92
4BBB-/ 4BB-/	2a-\ 2dd\ (2aa-\	>
4A-\ 4B-\ 4d\	.	.
4A-\ 4B-\ 4d\	4b-\ 4dd\ 4bb-\)	.
=93	=93	=93
4BBB-/ 4BB-/	2g\ 2dd\ (2gg\	mp
4A-\ 4B-\ 4d\	.	.
4A-\ 4B-\ 4d\	4f\ 4dd\ 4ff\)	.
=94	=94	=94
4EE-/ 4E-/	2.f#\ 2.ee-\ (2.ff#\	<
4An\ 4c\ 4e-\	.	.
4A\ 4c\ 4e-\	.	.
=95	=95	=95
4EE-/ 4E-/	2.g\ 2.ee-\ 2.gg\)	mf
4B-\ 4e-\	.	.
4B-\ 4e-\	.	.
=96	=96	=96
4EE-/ 4E-/	2g\ 2ee-\ (2gg\	.
4G\ 4B-\ 4e-\	.	.
4G\ 4B-\ 4e-\	4b-\ 4gg\ 4bb-\)	.
=97	=97	=97
4DD/ 4D/	8f\ (8ff\L	<
.	8g\ 8gg\	.
4A-\ 4B-\ 4d\	8a-\ 8aa-\	.
.	8b-\ 8bb-\	.
4A-\ 4B-\ 4d\	8cc\ 8ccc\	.
.	8dd\ 8ddd\J	.
=98	=98	=98
4CC/ 4C/	2.ee-\ 2.gg\ 2.eee-\)	f
4G\ 4c\ 4e-\	.	.
4G\ 4c\ 4e-\	.	.
=99	=99	=99
4AAA-/ 4AA-/	4cc\ 4ff\ 4aa-\ 4ccc\	.
4CC/ 4C/	4a-\ 4cc\ 4ff\ 4aa-\	.
4CC-/ 4C-/	4an\ 4ee-\ 4ff#\ 4aan\	.
=100	=100	=100
4BBB-/ 4BB-/	2b-\ 2ee-\ 2gg\ (2bb-\	.
4G\ 4B-\ 4e-\	.	.
4G\ 4B-\ 4e-\	4cc\ 4ee-\ 4gg\ 4ccc\)	.
=101	=101	=101
*>D1	*>D1	*>D1
*	*^	*
4BBB-/ 4BB-/	4r	4a-\ 4dd\ 4aa-\	.
4A-\ 4B-\ 4d\	2a-/	4.f\ 4.ff\	.
4A-\ 4B-\ 4d\	.	.	.
.	.	8b-\ 8bb-\	.
*	*v	*v	*
=102	=102	=102
4EE-/ 4E-/	[2.e-/ [2.g/ [2.ee-/	mf
4BB-/	.	.
4GG/	.	.
=103	=103	=103
4EE-/	4e-/] 4g/] 4ee-/]	.
4r	4B-/ 4b-/	.
4r	4e-/ 4ee-/	.
=104:|!	=104:|!	=104:|!
*>D2	*>D2	*>D2
4EE-/ 4E-/	[2.e-/ [2.g/ [2.ee-/	mf
4BB-/	.	.
4GG/	.	.
=105	=105	=105
4EE-/	4e-/] 4g/] 4ee-/]	.
4r	4r	.
4r	4f/	.
=106	=106	=106
*>E	*>E	*>E
*k[b-e-]	*k[b-e-]	*k[b-e-]
4BB-/	8b-'\L	mp
.	8dd'\	.
4F\ 4B-\ 4d\	8dd'\	.
.	8ff'\	.
4F\ 4B-\ 4d\	8ff'\	.
.	8f'\J	.
=107	=107	=107
*^	*	*
8BB-/L	2.BB-\	(2g/	.
(8G/	.	.	.
8B-/	.	.	.
8c#/J	.	.	.
4d/)	.	4f/)	.
*v	*v	*	*
=108	=108	=108
4BB-/	8b-'\L	.
.	8dd'\	.
4F\ 4B-\ 4d\	8dd'\	.
.	8ff'\	.
4F\ 4B-\ 4d\	8ff'\	.
.	8f'\J	.
=109	=109	=109
*^	*	*
8BB-/L	2.BB-\	(2g/	.
(8G/	.	.	.
8B-/	.	.	.
8c#/J	.	.	.
4d/)	.	4f/)	.
*v	*v	*	*
=110	=110	=110
4FF/	4gg\ 4eee-\ 4ggg\	<
4F\ 4A\ 4e-\	4.gg\ 4.eee-\ 4.ggg\	.
4F\ 4A\ 4e-\	.	.
.	8gg-\ 8eee-\ 8ggg-\	.
=111	=111	=111
4FF/	4ff\ 4eee-\ 4fff\	<
4F\ 4A\ 4e-\	4cc\ 4ccc\	.
4F\ 4A\ 4e-\	4cc#\ 4ccc#\	.
=112	=112	=112
4BBB-/ 4BB-/	4dd\ 4ff\ 4ddd\	>
4GG/ 4G/	4b-\ 4ee-\ 4bb-\	.
4EE-/ 4E-/	4g\ 4b-\ 4gg\	.
=113	=113	=113
4DD/ 4D/	2f\ 2b-\ 2ff\	mp
4F\ 4B-\ 4d\	.	.
4F\ 4B-\ 4d\	4f/	.
=114	=114	=114
4BB-/	8b-'\L	.
.	8dd'\	.
4F\ 4B-\ 4d\	8dd'\	.
.	8ff'\	.
4F\ 4B-\ 4d\	8ff'\	.
.	8f'\J	.
=115	=115	=115
*^	*	*
8BB-/L	2.BB-\	(2g/	.
(8G/	.	.	.
8B-/	.	.	.
8c#/J	.	.	.
4d/)	.	4f/)	.
*v	*v	*	*
=116	=116	=116
4BB-/	8b-'\L	.
.	8dd'\	.
4F\ 4B-\ 4d\	8dd'\	.
.	8ff'\	.
4F\ 4B-\ 4d\	8ff'\	.
.	8dd'\J	.
=117	=117	=117
(8BBn\L	2g#/ (2dd/	.
8F\	.	.
8G#\	.	.
8Bn\J	.	.
4c\)	&(4a/&) 4cc/)	.
=118	=118	=118
4CC/ 4C/	4dd\ 4bb-\ 4ddd\	<
4B-\ 4c\ 4en\	4.dd\ 4.bb-\ 4.ddd\	.
4B-\ 4c\ 4e\	.	.
.	8dd-\ 8bb-\ 8ddd-\	.
=119	=119	=119
4CC/ 4C/	4cc\ 4bb-\ 4ccc\	.
4B-\ 4c\ 4en\	4.gg\ 4.bb-\ 4.ggg\	.
4B-\ 4c\ 4e\	.	.
.	8aa\ 8ccc\ 8aaa\	.
=120	=120	=120
4FF/ 4F/	[2.ff\ [2.aa\ [2.fff\	.
4C/	.	.
4AA/	.	.
=121	=121	=121
*	*^	*
4FF/	4r	4ff\] 4aa\] 4fff\]	.
4r	(4g/	2e-\	.
4r	4a/)	.	.
=122	=122	=122	=122
4BB-/	8b-/L	4d'\	mp
.	8dd'/	.	.
4F\ 4B-\ 4d\	8dd'/	4r	.
.	8ff'/	.	.
4F\ 4B-\ 4d\	8ff'/	4r	.
.	8f'/J	.	.
*	*v	*v	*
=123	=123	=123
*^	*	*
8BB-/L	2.BB-\	(2g/	.
(8G/	.	.	.
8B-/	.	.	.
8c#/J	.	.	.
4d/)	.	4f/)	.
*v	*v	*	*
=124	=124	=124
4BB-/	8b-'\L	.
.	8dd'\	.
4F\ 4B-\ 4d\	8dd'\	.
.	8ff'\	.
4F\ 4B-\ 4d\	8ff'\	.
.	8f'\J	.
=125	=125	=125
*^	*	*
8BB-/L	2.BB-\	(2g/	.
(8G/	.	.	.
8B-/	.	.	.
8c#/J	.	.	.
4d/)	.	4f/)	.
*v	*v	*	*
=126	=126	=126
4FF/	4gg\ 4eee-\ 4ggg\	<
4F\ 4A\ 4e-\	4.gg\ 4.eee-\ 4.ggg\	.
4F\ 4A\ 4e-\	.	.
.	8gg-\ 8eee-\ 8ggg-\	.
=127	=127	=127
4FF/	4ff\ 4eee-\ 4fff\	<
4F\ 4A\ 4e-\	4cc\ 4ccc\	.
4F\ 4A\ 4e-\	4cc#\ 4ccc#\	.
=128	=128	=128
4BBB-/ 4BB-/	4dd\ 4ddd\	.
4F\ 4B-\ 4d\	(8ff\L	>
.	8cc#\	.
4F\ 4B-\ 4d\	8dd\	.
.	8a\J)	.
=129	=129	=129
4DD/ 4D/	(2b-/	.
4F\ 4B-\ 4d\	.	.
4F\ 4B-\ 4d\	4f/)	.
=130	=130	=130
4EE-/ 4E-/	8g-/L	.
.	8b-/	.
4G-\ 4B-\ 4e-\	8b-/	.
.	8cc/	.
4G-\ 4B-\ 4e-\	8cc/	.
.	8g-/J	.
=131	=131	=131
4DD/ 4D/	2f/	.
4F\ 4B-\ 4d\	.	.
4F\ 4B-\ 4d\	4f/	.
=132	=132	=132
4EE-/ 4E-/	8g-/L	.
.	8b-/	.
4G-\ 4B-\ 4e-\	8b-/	.
.	8cc/	.
4G-\ 4B-\ 4e-\	8cc/	.
.	8g-/J	.
=133	=133	=133
4DD/ 4D/	4f/	<
4DD^/ 4D^/	4a-^\ 4b-^\ 4ff^\	.
4EE-^/ 4E-^/	4g^\ 4b-^\ 4ee-^\	.
=134	=134	=134
*	*^	*
4FF/ 4F/	4dd/	2f\ 2b-\	f
4F\ 4B-\ 4d\	4.b-/	.	.
4F\ 4B-\ 4d\	.	4r	.
.	8dd/	.	.
=135	=135	=135	=135
4FF/ 4F/	4cc/	4e-\ 4a\	.
2F\ 2A\ 2c\	4.cc/	2e-\ 2a\	.
.	8dd/	.	.
=136	=136	=136	=136
8BB-\	8d/ 8b-/L	8B-\L	.
8r	8dd/	8f\	.
4r	8dd/	8f\	.
.	8ff/	8b-\	.
4r	8ff/	8b-\	.
.	8bb-/J	8dd\J	.
=137	=137	=137	=137
2.r	8bb-/L	8dd\L	.
.	8ddd/	8ff\	.
.	8ddd/	8ff\	.
.	8fff/	8bb-\	.
.	8fff/	8bb-\	.
.	8bbb-/J	8ddd\J	.
=138	=138	=138	=138
2r	8bbb-/	8ddd\	.
.	8r	8r	.
.	2r	4r	.
4F\ 4f\	.	4a\ 4ee-\ 4ff\	.
*	*v	*v	*
=139	=139	=139
4BB-\ 4B-\	4b-\ 4dd\ 4ff\ 4bb-\	.
4r	4r	.
4r	4r	.
=140	=140	=140
*	*^	*
4r	4ddd/ 4fff/ 4bbb-/ 4dddd/	4b-\ 4dd\ 4ff\	.
4r	4r	4r	.
4r	4r	4r	.
*	*v	*v	*
=141	=141	=141
4B-\ 4d\ 4f\	4b-\ 4dd\ 4ff\ 4bb-\	.
4r	4r	.
4r	4r	.
=142	=142	=142
2.EEE-/ 2.EE-/	2.B-/ 2.e-/ 2.g-/ 2.b-/	.
=143	=143	=143
2.BBB-/ 2.BB-/	2.B-/ 2.d/ 2.f/ 2.b-/	p
==	==	==
*-	*-	*-
!!!ENC: Craig Stuart Sapp
!!!END: 2005/02/04/
